X:1
T:Title
%%score { ( 1 3 4 ) | ( 2 5 ) }
L:1/8
Q:1/4=100
M:4/4
K:Bb
V:1 treble nm="Grand Piano"
V:3 treble 
V:4 treble 
V:2 bass 
V:5 bass 
V:1
 [Ge]2 [Gc]2 [GB]2 G2 | E>F G>[F_A] [GB]>[^F=A] [GB]2 | c2 e2 B2 e2 | _A>B G>A [DF]>[_D=E] [=DF]2 | %4
w: Charles~H.~Gabriel * * *||||
 z2 z F G>_A B2 | z2 z G A>B c2 | B>A [FB]>c d>_d =d>[Ge] | z4 z2 d2 | [Ge]2 [Gc]2 [GB]2 G2 | %9
w: |||||
 E>F G>[F_A] [GB]>[^F=A] [EGB]2 | [E_Ae]2 [_DE]2 [CEe]2 [DE]2 | %11
w: ||
 [CEF]>[CEG] [CE_A]>[CEB] [EAc]>[DA=B] [EAc]2 | [_Ad]4 z4 | [Ge]3 c B>c [Ge]2 | G>^F G>A B>A B>c | %15
w: ||||
 d>c B>A G4 | d6 z2 | B6 z2 | [B,D_A]2 [DAc]2 [DAc]4 | [G,E]2 [EGc]2 [EGc]4 | d6 z2 | %21
w: ||||||
[M:3/4] B4 z2 |[M:1/4] G->[Gc] |[M:4/4] d2 (3Bcd [Af]2 (3edc | B>A B>A [B,DB]2 z2 | d6 z2 | B6 z2 | %27
w: ||||||
 [B,D_A]2 [DAc]2 [DAc]4 | [G,E]2 [EGc]2 [EGc]4 | d6 z2 |[M:3/4] B4 z2 |[M:1/4] G2 | %32
w: |||||
[M:4/4] [E_Ae]2 [E=E]2 [CAe]2 [cf]2 | [=Bg]6[K:bass] z2 | f4 z4 | e4 z4 |[M:9/8] B2 c- c d2 f3 | %37
w: |||||
[M:4/4] e6 z2 |] %38
w: |
V:2
 [E,B,]2 [E,E]2 [E,E]2 [E,B,E]2 | [E,G,]>[E,_A,E] [E,B,E]>[E,B,] [E,E]>[E,E] [E,E]2 | %2
 [_A,E_A]2 [A,CA]2[K:bass] [G,E]2 [G,B,E]2 | %3
 [F,B,D]>[F,B,D] [E,B,E]>[E,B,E] [B,,B,]>[B,,B,] [B,,B,]2 | [E,B,]2 z D [E,B,E]>[F,B,E] [G,B,E]2 | %5
 F3[K:treble] F [F,EF]>[G,EF] [A,EF]2 | %6
 [B,DF]>[K:bass][F,CF] [D,B,]>[K:treble][F,A,F] [B,F]>[B,=E] [B,F]>[K:bass][E,B,] | %7
 [F,B,F]2 [F,A,E]2 [B,D]>[B,E] .[B,F]2 | [E,B,]2 [E,E]2 [E,E]2 [E,B,E]2 | %9
 [E,G,]>[E,_A,E] [E,B,E]>[E,B,] [E,E]>[E,E] _D,2 | C,2 B,,2 _A,,2 [G,,G,]2 | %11
 [_A,,_A,]>[A,,A,] [A,,A,]>[A,,A,] [A,,A,]>[A,,A,] [A,,A,]2 | z2 B,2 z4 | %13
 [E,B,]2 z[K:treble] G [G,E]>[K:bass][G,E] [E,B,]2 | G,>^F, G,>A, B,>A, B,>[K:treble]C | %15
 D>C B,>A,[K:bass] G,4 | [F,B,]2 [B,,B,]2 [F,B,]2 [B,,B,]2 | [E,B,]2 [B,,B,]2 z z/ ^F/ z z/ E/ | %18
 F,>B, _A,>F, D,>B,, C,>D, | E,>C B,>_A, G,>F, E,>G, | [F,B,]2 [B,,B,]2 [F,B,]2 z z/[K:treble] c/ | %21
[M:3/4][K:bass] E,2 (3z[K:treble] F^F[K:bass] [E,B,]2 |[M:1/4] [E,E]2 | %23
[M:4/4] [F,B,F]2 (3[F,DF][F,EF][F,DF] [F,C]2 (3[F,CF][F,B,F][F,A,E] | %24
 [B,D]>[F,CE] [B,D]>[F,CE] (3z[K:treble] AB (3=Bc_d | [F,B,]2 [B,,B,]2 [F,B,]2 [B,,B,]2 | %26
 [E,B,]2 [B,,B,]2 z z/ ^F/ z z/ E/ | F,>B, _A,>F, D,>B,, C,>D, | E,>C B,>_A, G,>F, E,>G, | %29
 [F,B,]2 [B,,B,]2 [F,B,]2 z z/[K:treble] c/ |[M:3/4][K:bass] E,2 (3z[K:treble] F^F z z/ F/ | %31
[M:1/4][K:bass] z z/ E/ |[M:4/4] C,2 B,,2 _A,,2 [_A,C]2 | G,2 z2 z4 | %34
 [_A,C_A]2 [A,C]2 [=A,E^F]2 z2 | [B,EG]2 [B,E]2 [=B,E^F]2 z2 | %36
[M:9/8] [B,EG]2 [B,EG]- [B,EG] [B,F_A]2[K:bass] [B,,DA]3 |[M:4/4] [E,,E,B,G]6 z2 |] %38
V:3
 x8 | x8 | x8 | x8 | [EG]4 z4 | A4 z4 | x8 | d2 c2 B>c z _A | x8 | x8 | x8 | x8 | %12
 z2 z c [D_AB]>[CAc] [Ad]2 | x8 | x8 | x8 | _A2 (3F^FG z z/ c/ d>c | G2 (3EF^F G>A [B,GB]2 | x8 | %19
 x8 | _A2 (3F^FG z z/ c/ [Ad]2 |[M:3/4] [B,G]2 .[B,E]2 [GB]>[^FA] |[M:1/4] B3/2 z/ |[M:4/4] x8 | %24
 x8 | _A2 (3F^FG z z/ c/ d>c | G2 (3EF^F G>A [B,GB]2 | x8 | x8 | _A2 (3F^FG z z/ c/ [Ad]2 | %30
[M:3/4] [B,G]2 .[B,E]2 [GB]>A |[M:1/4] [EB]3/2 z/ |[M:4/4] x8 | z z/[K:bass] G,/ =B,>D, D2 z2 | %34
 z2 _A2 c2 (3=Bcd | z2 G2 A2 (3=Bc_d |[M:9/8] x9 |[M:4/4] x8 |] %38
V:4
 x8 | x8 | x8 | x8 | z2 B,2 z4 | z2 E2 z4 | x8 | x8 | x8 | x8 | x8 | x8 | z2 F2 z4 | x8 | x8 | x8 | %16
 z4 _A2 z2 | x8 | x8 | x8 | z4 _A2 z2 |[M:3/4] x6 |[M:1/4] x2 |[M:4/4] x8 | x8 | z4 _A2 z2 | x8 | %27
 x8 | x8 | z4 _A2 z2 |[M:3/4] x6 |[M:1/4] x2 |[M:4/4] x8 | x3/2[K:bass] x13/2 | x8 | x8 | %36
[M:9/8] x9 |[M:4/4] x8 |] %38
V:5
 x8 | x8 | x4[K:bass] x4 | x8 | z2 B,,2 z4 | [F,E]2 C,2[K:treble] z4 | %6
 x3/2[K:bass] x2[K:treble] x4[K:bass] x/ | x8 | x8 | x8 | x8 | x8 | [F,B,]2 z _A B,,>B,, [F,B,]2 | %13
 z2 B,2[K:treble] z4[K:bass] | x15/2[K:treble] x/ | x4[K:bass] x4 | x8 | z4 [E,B,]2 B,,2 | x8 | %19
 x8 | z4 z2 [B,,B,]2[K:treble] |[M:3/4][K:bass] z2 B,,2[K:treble][K:bass] z2 |[M:1/4] x2 | %23
[M:4/4] x8 | z4 B,,2[K:treble] z2 | x8 | z4 [E,B,]2 B,,2 | x8 | x8 | z4 z2 [B,,B,]2[K:treble] | %30
[M:3/4][K:bass] z2 B,,2[K:treble] [E,B,]2 |[M:1/4][K:bass] _D,2 |[M:4/4] x8 | %33
 D->[G,,D-] [=B,,D]2 G,2 z2 | x8 | x8 |[M:9/8] x6[K:bass] x3 |[M:4/4] x8 |] %38

